!!!OTL: ANKE VON THARAU OESS DE MY GEFOELLT
!!!ARE: Europa, Mitteleuropa, Deutschland
!!!SCT: B0376B
!!!YEM: Copyright 1995, estate of Helmut Schaffrath.
**kern
*ICvox
*Ivox
*M3/2
*k[]
*C:
=1
{2g
2g
2d
=2
2e
2e
2d
=3
2c
4c
4d
2e
=4
[1d
2d]}
=5
{2g
2g
2d
=6
2e
2e
2d
=7
2c
4c
4d
2e
=8
[1d
2d]}
=9
{2e
2e
2f
=10
2g
2g
2f
=11
2e
4d
4c
4d
4e
=12
[1c
2c]}
==
!!!AGN: Liebes - Lied, Liebes - Lust
!!!ONB: ESAC (Essen Associative Code) Database: BOEHME
!!!AMT: simple triple
!!!AIN: vox
!!!EED: Helmut Schaffrath
!!!EEV: 1.0
*-
